X: 36943
T: Shoulder Dancing
R: reel
M: 4/4
K: Gmajor
BGAG EG~G2|DBAd BA~A2|dBAG EGDE|GBAE ~G3A|
BGAG EG~G2|DBAd BA~A2|dBAG EGDE|1 GBAE ~G3A:|2 GBAE GA B/c/d||
|:e2zd eG~G2|eged BA~A2|eged BE~E2|GA B/c/d ebag|
bzag ae~e2|dged ~B3d|dBAG EGDE|1 GBAE GA B/c/d:|2 GBAE ~G3A||

